X:1
T:At Antioche
T:Christopher Tye
T:Source : Actes of the Apostles---Chapter XIII---1553. Editor : André Vierendeels (13/01/17).
T:At Antioche
T:©
T:©
T:©
C:Christopher Tye
Z:©
%%score [ 1 2 3 4 ]
L:1/8
Q:1/4=122
M:4/4
K:Bb
V:1 treble nm="Soprano" snm="S"
V:2 treble nm="Alto" snm="A"
V:3 treble-8 nm="Tenor" snm="T"
V:4 bass nm="Bass" snm="B"
V:1
 z2 D2 G3 A | B2 G2 B3 c | d2 e2 d3 c | BA G2 ^F4 | z2 F2 G2 A2 | B2 A2 d3 c | B2 A2 G BAG | %7
w: At An- tio-|che ther dyd re-|mayne a- mong the|flocke of _ Christ:|some pro- phets|and some tea- chers|playne sent from the _ Lord|
"^#""^#""^b" FG F2 G2 B2 | B3 B G2 B2 | B3 A G2 F2 | E2 D2 D2 C2 | D2 d2 d3 c | B2 e2 d3 c | %13
w: most hy _ est, as|Ba- ra- bas, Si-|mon Ni- ger and|Lu- cye of Si-|ren, the Te- tracks|nurses fe- low was|
 B2 A2 AG G2 | G2 ^F2 G4- | G8 |] %16
w: ther whole name _ was|Ma- na- hen.|_|
V:2
 z2 B,2 D2 D2 | G,2 G,2 G,3 G, | G,2 B,2 B,CDE | D3 C D4 | z2 D2 D3 C | B,2 F2 DG ^F2 | %6
w: At An- tio-|che ther dyd re-|mayne a- mong _ _ the|flocke of Christ|some pro- phets|and some tea- * chers|
 D3 D E2 E2 |"^-natural" D3 C B,2 D2 | D3 D E2 D2 | G3 F E2 D2 | CB, A,A, G,2 G2 | G2 ^F2 G2 B2 | %12
w: playne sent from the|Lord most hyest, as|Ba- ra- bas, Si-|mon Ni- ger and|Lu- * cye _ of Si-|ren, the Te- tracks|
 G3 A B2 G2 | F3 E D2 E2 | D3 C =B,4- | B,8 |] %16
w: nurses fe- low was|ther whole name was|Ma- na- hen.|_|
V:3
 z2 G2 B3 c | d2 e2 d3 c | BA G2 F2 F2 | F2 G2 A4 | z2 A2 B2 A2 | d3 c B2 A2 | BcdA B2 c2 | %7
w: At An- tio-|che ther dyd re-|mayne _ a- mong the|flocke of Christ|some pro- phets|and some tea- chers|playne _ _ sent from tha|
 A2 A2 G4 | z2 B2 B3 B | G2 B2 B3 A | G2 ^F2 G3 A | B2 A2 G2 d2 | d3 c B2 e2 | d3 c BBcB | %14
w: Lord most hyest,|as Ba- ra-|bas, Si- mon Ni-|ger and Lu- cye|of Si- ren, the|Te- tracks nurses fe-|low was there whole name was|
 AG A2 G4- | G8 |] %16
w: Ma- * na- hen.|_|
V:4
"^-natural" z2 G,,2 G,,2 G,,2 | G,,2 C,2 G,,2 G,,2 | G,,2 G,,2 B,,3 C, | D,2 E,2 D,4 | %4
w: At An- tio-|che ther dyd re-|mayne a- mong the|flocke of Christ|
 z2 D,2 G,2 F,2 | G,2 F,2 G,2 D,2 | G,3 F, E,2 C,2 | D,2 D,2 G,,2 G,2 | G,3 G, E,2 B,,2 | %9
w: some pro- phets|and some tea- chers|playne sent from the|Lord most hyest, as|Ba- ra- bas, Si-|
 E,2 E,2 E,2 B,,2 | C,2 D,2 E,2 E,2 | D,3 C, B,,A,, G,,2 | G,,2 G,2 G,3 A, | B,2 F,2 G,2 C,2 | %14
w: mon Ni- ger and|Ly- cye of Si-|ren, the Te- * tracks|nurses fe- low was|the whole name was|
 D,2 D,2 G,,4- | G,,8 |] %16
w: Ma- na- hen.|_|

